X:1
T:Title
%%score { ( 1 4 ) | ( 2 3 ) }
L:1/8
Q:1/4=100
M:4/4
K:C
V:1 treble nm="Grand Piano"
V:4 treble 
V:2 bass 
V:3 bass 
V:1
 .[Ec]2 .[Ec]2 .[Ec]>.[EB] .[Ec]>.[EA] | [FB]2 [FB]2 [FB]4 | .B2 .B2 B>_B =B>G | [EA]4 [EG]4 | %4
w: Clarence~Kohlmann * * * * *||||
 [Ec]2 [Ec]2 [Ec]>[EB] [Ec]>[_EA] | [DB]2 [DB]2 [GB]4 | [^Fd]2 [Fd]2 [Fd]>[Fc] [DFB]>[CFA] | %7
w: |||
[M:1/4] [B,G]2 |[M:3/4] z6 |[M:4/4] [EGc]2 [Gc]2 [EGc]2 [Gc]2 | [EGc]2 [EGc]2 [EGc]2 [EGc]2 | %11
w: ||||
 [FAd]2 [Ad]2 [FAd]2 [Ad]2 | [FAd]2 [Ad]2 [Ad]2 [Ad]2 | [Fd]4 [E^c]4 | %14
w: |||
 [Ge]2 [Fd]2 [FB]2 [G,B,FG]2 | [EA]4 [E^G]4 | [EG]2 G2 A2 B2 | c4 B4 | %18
w: ||||
 [EGd]2 [EGc]2 [CEG]2[K:bass] [A,CE]2 | D4[K:treble] B4 | A2 [Af]2 [Ae]2 [Ad]2 | c2 G4 ^G2 | %22
w: ||||
 [^FA]4 [=Fd]4 | c8- | c8 |] %25
w: |||
V:2
 .[C,G,]2 .[G,,G,]2 .[C,G,]>.[C,G,] .[C,G,]>.[C,G,] | [D,G,]2 [G,,G,]2 [D,G,]4 | %2
 .[G,DF]2 .[G,DF]2 [G,DF]>[G,^CF] [G,DF]>[G,B,F] | [C,C]4 [C,C]4 | %4
 [C,G,]2 [G,,G,]2 [C,G,]>[C,G,] [C,G,]>[B,,G,] | [D,G,]2 [D,G,]2 [D,D]4 | %6
 [D,A,]2 [D,A,]2 [D,A,]>[D,A,] D,>D, |[M:1/4] G,2 |[M:3/4] G,2 A,2 B,2 | %9
[M:4/4][K:treble] z2 E2 z2 E2 | D2 C2[K:bass] G,2 E,2 | z2[K:treble] F2 z2 F2 | z2 F2 F2 F2 | %13
 D,2 F,2 G,,2 F,2 | D,2 [F,G,B,]2 G,,2 F,2 | C,2 E,2 G,,2 E,2 | C,2 G,2[K:treble] [A,F]2 [B,FG]2 | %17
 [EG]2 E2 [EG]2 E2 | .D2 .C2[K:bass] .G,2 .E,2 | z2 F,2[K:treble] [DF]2 D2 | %20
 [A,DF]2[K:bass] [D,D]2 [E,C]2 [F,D]2 | [G,EG]2 [G,CE]4[K:bass] [E,CE]2 | [D,C]4 [G,B,]4 | z4 A,4 | %24
 G,8 |] %25
V:3
 x8 | x8 | x8 | x8 | x8 | x8 | x8 |[M:1/4] x2 |[M:3/4] x6 |[M:4/4][K:treble] C4 B,4 | %10
 x4[K:bass] x4 | D,4[K:treble] B,4 | A,8 | x8 | x8 | x8 | x4[K:treble] x4 | C4 B,4 | %18
 x4[K:bass] x4 | D,4[K:treble] B,4 | x2[K:bass] x6 | x6[K:bass] x2 | x8 | C,8- | C,8 |] %25
V:4
 x8 | x8 | x8 | x8 | x8 | x8 | x8 |[M:1/4] x2 |[M:3/4] x6 |[M:4/4] x8 | x8 | x8 | x8 | %13
 z2 [G,B,]2 z2 [G,B,]2 | x8 | z2 [G,C]2 z2 [G,C]2 | x8 | z2 G2 z2 G2 | x6[K:bass] x2 | %19
 [F,A,]2 A,2[K:treble] z2 F2 | x8 | x8 | x8 | [CE]4 F4 | E8 |] %25

